X:1
T:Title
%%score { ( 1 3 ) | ( 2 4 ) }
L:1/8
M:3/4
K:F
V:1 treble nm="Grand Piano"
V:3 treble 
V:2 bass 
V:4 bass 
V:1
 z2 z2[Q:1/4=94] F>G | A3 c d>c | c2 A2 F>G | A3 d c>A | [EG]4 [EG]>[EG] | [EG]3 [FA] [GB]>[EG] | %6
 [FA]2 [Ac]2 c>c | c3 G A>=B | [Ec]4 [Ec]>[Ec] | [EB]3 [EB] [EA]>[EG] | z z/ G/ A2 c>c | %11
 [EB]3 [EB] [EA]>[EG] | A4 F>G | A3 c d>c | c2 A2 A>d | c3 A [EG]>[EA] |[M:2/4] F4 |] %17
V:2
 z2 z2 [F,A,]>[F,B,F] | [F,CF]3 [F,A,F] [F,B,F]>[F,A,F] | [F,A,F]2 [F,CF]2 [F,A,]>[F,B,F] | %3
 [F,CF]3 [F,B,F] [F,A,F]>[F,CF] | [C,C]4 [C,C]>[C,C] | [C,C]3 [C,C] [C,C]>[C,C] | %6
 [F,C]2 [F,C]2[K:treble] [F,A,F]>[F,A,F] | [G,E]3 [G,CE] [G,=B,F]>[G,F] | [C,G,]4 [C,G,]>[C,G,] | %9
 [C,G,]3 [C,G,] [C,C]>[C,B,] | F,->[F,B,] [F,CF]2 [F,A,F]>[F,A,F] | [C,G,]3 [C,G,] [C,C]>[C,C] | %12
 [F,CF]4 [F,A,]>[F,B,F] | [F,CF]3 [F,A,F] [F,B,F]>[F,A,F] | [F,A,F]2 [F,CF]2 [F,CF]>[F,B,F] | %15
 [F,A,F]3 [F,CF] [C,B,]>[C,C] |[M:2/4] [F,A,]4 |] %17
V:3
 x6 | x6 | x6 | x6 | x6 | x6 | x6 | x6 | x6 | x6 | F2 z2 z2 | x6 | x6 | x6 | x6 | x6 |[M:2/4] x4 |] %17
V:4
 x6 | x6 | x6 | x6 | x6 | x6 | x4[K:treble] x2 | x6 | x6 | x6 | A,2 z2 z2 | x6 | x6 | x6 | x6 | %15
 x6 |[M:2/4] x4 |] %17

